assets/features/channel/southeast-asia1/AUB.svg

<svg width="80" height="80" viewBox="0 0 80 80" fill="none" xmlns="http://www.w3.org/2000/svg">
<rect width="80" height="80" rx="8" fill="#E41B23"/>
<path d="M49.8789 21.0721C50.8402 20.826 51.8749 20.6936 52.8406 20.9918C53.5491 21.1973 54.1696 21.6599 54.6007 22.255C55.0749 22.9096 55.4112 23.6705 55.5408 24.4706C55.5635 24.7119 55.5543 24.9545 55.5548 25.1967C55.5611 25.5245 55.4615 25.8407 55.3663 26.1506C55.0671 27.0328 54.4673 27.7705 53.825 28.429C53.3243 28.9148 52.7879 29.362 52.2302 29.7811C50.6174 30.9878 48.8775 32.0093 47.1802 33.0898C45.7525 33.9812 44.3394 34.9007 43.0045 35.9275C42.4477 36.3452 41.9495 36.8325 41.4285 37.2918C40.7649 37.8545 40.1361 38.4569 39.4827 39.0312C39.3218 39.1743 39.1589 39.3159 39.0129 39.475C37.6882 40.801 36.4471 42.2156 35.3669 43.75C34.367 45.1785 33.5004 46.7226 32.993 48.3982C32.4942 50.0259 32.4077 51.8209 32.9983 53.4365C33.326 54.3106 33.7798 55.1856 34.5405 55.759C35.1905 56.2661 36.0204 56.4585 36.8289 56.5049C37.6109 56.4967 38.3822 56.3473 39.1309 56.1278C39.5156 56.0084 39.9143 55.9199 40.2806 55.7507C40.806 55.5941 41.297 55.3475 41.7933 55.1199C43.4636 54.3053 45.0406 53.3123 46.5654 52.2536C49.1849 50.416 51.656 48.3755 54.0449 46.2493C55.1179 45.3086 56.1565 44.3301 57.2125 43.371C57.4667 43.1152 57.7446 42.8851 58.0186 42.6516C58.0568 42.9702 57.936 43.2733 57.8422 43.5706C57.6982 43.9912 57.5377 44.4094 57.3145 44.7952C56.8505 45.6131 56.459 46.4756 55.9143 47.2452C54.6631 49.0663 53.1508 50.7013 51.4815 52.1453C50.5715 52.928 49.6614 53.7111 48.7408 54.4808C47.5489 55.4655 46.3074 56.3947 44.9778 57.1861C43.6202 58.0142 42.1679 58.6765 40.676 59.2223C40.0346 59.4572 39.3759 59.6467 38.7002 59.7545C37.5809 59.9344 36.435 60.0248 35.3051 59.8807C34.1529 59.7758 32.9954 59.5481 31.9317 59.0801C31.1589 58.7045 30.4605 58.1916 29.8192 57.6231C28.6418 56.5789 27.6951 55.2639 27.1335 53.7899C26.582 52.357 26.3916 50.8023 26.4723 49.2747C26.5298 48.0608 26.7488 46.8594 27.0639 45.6866C27.9754 42.4181 29.5877 39.3879 31.4682 36.5797C31.893 35.9725 32.2854 35.3373 32.7866 34.7881C33.4105 34.0615 34.0161 33.3194 34.6396 32.5923C34.8237 32.3588 35.031 32.1447 35.2084 31.9058C36.9913 29.9649 38.9134 28.1525 40.9297 26.4561C42.4545 25.1876 44.0436 23.9896 45.738 22.9555C47.0405 22.1767 48.4063 21.4685 49.8789 21.0721Z" fill="#E41B23"/>
<path d="M24.2548 20.9438C24.9338 20.5797 25.7062 20.4115 26.4732 20.3999C37.5416 20.4009 48.6101 20.3999 59.6781 20.4004C60.3359 20.4081 61.0038 20.4811 61.6181 20.732C62.3068 20.9955 62.9056 21.4847 63.3024 22.1069C63.749 22.8093 63.9703 23.6433 63.9993 24.4709C63.9998 34.6395 64.0008 44.8075 63.9988 54.9761C64.0022 55.9371 63.7784 56.9349 63.1859 57.7104C62.6118 58.4713 61.7157 58.9364 60.7926 59.1176C60.174 59.2612 59.5365 59.2105 58.9073 59.2187C52.8303 59.2211 46.7528 59.2143 40.6758 59.2221C42.1678 58.6763 43.6201 58.014 44.9777 57.1858C46.3072 56.3945 47.5488 55.4653 48.7406 54.4805C49.6613 53.7109 50.5714 52.9278 51.4814 52.1451C53.1507 50.7011 54.663 49.0661 55.9142 47.245C56.4589 46.4754 56.8504 45.6129 57.3143 44.7949C57.5376 44.4092 57.6981 43.991 57.8421 43.5704C57.9358 43.2731 58.0567 42.97 58.0185 42.6514C57.7445 42.8849 57.4666 43.115 57.2123 43.3708C56.1563 44.3299 55.1177 45.3084 54.0448 46.2491C51.6559 48.3753 49.1848 50.4158 46.5653 52.2534C45.0405 53.3121 43.4635 54.3051 41.7932 55.1197C41.2969 55.3473 40.8058 55.5939 40.2805 55.7505C41.3491 54.4941 42.2383 53.081 42.8647 51.5534C43.6689 49.6138 44.0541 47.5046 44.0086 45.406C43.9405 42.531 43.0517 39.6696 41.4283 37.2916C41.9493 36.8323 42.4476 36.345 43.0044 35.9273C44.3392 34.9005 45.7524 33.981 47.1801 33.0896C48.8774 32.0091 50.6173 30.9876 52.23 29.7809C52.7878 29.3618 53.3242 28.9146 53.8249 28.4288C54.4672 27.7703 55.067 27.0326 55.3661 26.1503C55.4614 25.8405 55.5609 25.5243 55.5546 25.1965C55.5542 24.9543 55.5633 24.7117 55.5406 24.4704C55.4111 23.6703 55.0747 22.9094 54.6006 22.2548C54.1695 21.6597 53.549 21.1971 52.8404 20.9916C51.8748 20.6933 50.8401 20.8258 49.8788 21.0719C48.4062 21.4683 47.0404 22.1765 45.7379 22.9553C44.0434 23.9894 42.4544 25.1873 40.9296 26.4559C38.9132 28.1523 36.9912 29.9646 35.2083 31.9056C33.6579 31.1336 31.9644 30.6579 30.2477 30.4461C27.5654 30.1145 24.8029 30.4853 22.2994 31.5039C22.2994 29.2409 22.2994 26.978 22.2994 24.7146C22.2892 23.9531 22.4149 23.1767 22.7532 22.4888C23.0712 21.8304 23.6115 21.287 24.2548 20.9438Z" fill="#FDB813"/>
<path d="M26.0358 34.4072C28.2097 33.9494 30.5049 34.0645 32.6164 34.7601C32.672 34.7741 32.729 34.7833 32.7865 34.7882C32.2853 35.3373 31.8929 35.9726 31.4681 36.5798C29.5876 39.388 27.9753 42.4182 27.0638 45.6867C26.7487 46.8595 26.5297 48.0608 26.4722 49.2747C26.3915 50.8024 26.5819 52.3571 27.1334 53.79C27.695 55.264 28.6418 56.5789 29.8191 57.6232C30.4604 58.1917 31.1588 58.7046 31.9316 59.0802C31.8325 59.088 31.7339 59.0986 31.6387 59.1262C28.619 59.8673 25.3312 59.4341 22.6049 57.9364C20.9559 57.0382 19.5118 55.7682 18.4103 54.2473C17.2799 52.6936 16.5095 50.8783 16.1843 48.9837C15.9668 47.7248 15.9446 46.4312 16.1031 45.1636C16.4076 42.7721 17.4201 40.4758 18.9801 38.6377C20.7761 36.4966 23.2989 34.9767 26.0358 34.4072Z" fill="#FDB813"/>
<path d="M35.3668 43.7501C36.447 42.2157 37.6881 40.8012 39.0128 39.4751C40.2254 41.1961 41.0079 43.2159 41.2553 45.3077C41.3239 46.0691 41.395 46.8363 41.3118 47.5997C41.164 50.2441 40.1374 52.8275 38.4473 54.8647C37.9872 55.4381 37.4503 55.9428 36.9153 56.4441C36.8863 56.4639 36.8573 56.4838 36.8288 56.505C36.0202 56.4586 35.1904 56.2662 34.5404 55.7591C33.7797 55.1857 33.3258 54.3107 32.9982 53.4367C32.4076 51.821 32.4941 50.026 32.9928 48.3983C33.5003 46.7227 34.3669 45.1787 35.3668 43.7501Z" fill="#FDB813"/>
</svg>

<svg xmlns="http://www.w3.org/2000/svg" width="80" height="80" fill="none" viewBox="0 0 80 80"><rect width="80" height="80" fill="#e41b23" rx="8"/><path fill="#e41b23" d="M49.879 21.072c.961-.246 1.996-.378 2.962-.08a3.36 3.36 0 0 1 1.76 1.263c.474.655.81 1.416.94 2.216.023.24.013.483.014.726.006.328-.093.644-.189.954-.299.882-.899 1.62-1.541 2.278-.5.486-1.037.933-1.595 1.352-1.613 1.207-3.352 2.228-5.05 3.309-1.428.891-2.84 1.81-4.175 2.837-.557.418-1.056.906-1.577 1.365-.663.563-1.292 1.165-1.945 1.74-.161.142-.324.284-.47.443-1.325 1.326-2.566 2.74-3.646 4.275-1 1.428-1.867 2.973-2.374 4.648-.499 1.628-.585 3.423.005 5.038.328.875.782 1.75 1.543 2.323.65.507 1.48.7 2.288.746.782-.008 1.553-.158 2.302-.377.385-.12.783-.208 1.15-.377.525-.157 1.016-.404 1.512-.631 1.67-.815 3.248-1.808 4.772-2.866 2.62-1.838 5.091-3.878 7.48-6.005 1.073-.94 2.111-1.919 3.167-2.878.255-.256.533-.486.807-.72.038.32-.083.622-.177.92-.144.42-.304.838-.527 1.224-.465.818-.856 1.68-1.4 2.45-1.252 1.821-2.764 3.456-4.434 4.9-.91.783-1.82 1.566-2.74 2.336-1.192.984-2.434 1.914-3.763 2.705-1.358.828-2.81 1.49-4.302 2.036-.641.235-1.3.425-1.976.532-1.12.18-2.265.27-3.395.127-1.152-.105-2.31-.333-3.373-.8-.773-.377-1.471-.89-2.113-1.458-1.177-1.044-2.124-2.36-2.685-3.833-.552-1.433-.742-2.988-.662-4.515.058-1.214.277-2.416.592-3.588.911-3.269 2.524-6.3 4.404-9.107.425-.608.817-1.243 1.319-1.792.624-.726 1.23-1.469 1.853-2.196.184-.233.391-.447.568-.686a62 62 0 0 1 5.722-5.45c1.525-1.268 3.114-2.466 4.808-3.5 1.303-.78 2.668-1.488 4.14-1.884"/><path fill="#fdb813" d="M24.255 20.944c.679-.364 1.451-.532 2.218-.544h33.205c.658.008 1.326.081 1.94.332a3.5 3.5 0 0 1 1.684 1.375c.447.702.668 1.536.697 2.364q.002 15.252 0 30.505c.003.961-.22 1.959-.813 2.734-.574.761-1.47 1.226-2.393 1.408-.619.143-1.257.093-1.886.1-6.077.003-12.154-.004-18.231.004 1.492-.546 2.944-1.208 4.302-2.036 1.33-.791 2.57-1.72 3.763-2.706.92-.77 1.83-1.552 2.74-2.335 1.67-1.444 3.182-3.079 4.433-4.9.545-.77.936-1.632 1.4-2.45.224-.386.384-.804.528-1.225.094-.297.215-.6.177-.919-.274.234-.552.464-.807.72-1.056.959-2.094 1.937-3.167 2.878-2.39 2.126-4.86 4.167-7.48 6.004-1.524 1.06-3.101 2.052-4.772 2.867-.496.227-.987.474-1.512.63a15.7 15.7 0 0 0 2.584-4.197 15.2 15.2 0 0 0 1.144-6.147c-.069-2.875-.957-5.736-2.58-8.114.52-.46 1.019-.947 1.575-1.365 1.335-1.026 2.748-1.946 4.176-2.837 1.697-1.08 3.437-2.102 5.05-3.31a16 16 0 0 0 1.595-1.351c.642-.659 1.242-1.396 1.541-2.279.095-.31.195-.626.189-.953 0-.243.008-.485-.014-.727a5.2 5.2 0 0 0-.94-2.215 3.36 3.36 0 0 0-1.76-1.263c-.966-.299-2-.166-2.962.08-1.473.396-2.839 1.105-4.141 1.883-1.695 1.034-3.284 2.232-4.808 3.5a62 62 0 0 0-5.722 5.45c-1.55-.771-3.244-1.247-4.96-1.459a16 16 0 0 0-7.949 1.058v-6.79c-.01-.76.116-1.537.454-2.225a3.5 3.5 0 0 1 1.502-1.545"/><path fill="#fdb813" d="M26.036 34.407a12.75 12.75 0 0 1 6.58.353q.084.02.17.028c-.5.55-.893 1.185-1.318 1.792-1.88 2.808-3.493 5.838-4.404 9.107-.315 1.172-.534 2.374-.592 3.588-.08 1.527.11 3.082.661 4.515.562 1.474 1.509 2.789 2.686 3.833.641.569 1.34 1.082 2.113 1.457-.1.008-.198.019-.293.046a12.68 12.68 0 0 1-9.034-1.19 12.7 12.7 0 0 1-4.195-3.689 12.6 12.6 0 0 1-2.226-5.263 13 13 0 0 1-.08-3.82 12.6 12.6 0 0 1 2.876-6.526 12.66 12.66 0 0 1 7.056-4.23m9.331 9.342c1.08-1.534 2.321-2.949 3.646-4.275a12.8 12.8 0 0 1 2.242 5.833c.069.761.14 1.528.057 2.292a12.58 12.58 0 0 1-2.865 7.265c-.46.573-.997 1.078-1.532 1.58q-.044.029-.086.06c-.809-.046-1.639-.239-2.289-.746-.76-.573-1.214-1.448-1.542-2.322-.59-1.616-.504-3.411-.005-5.039.507-1.675 1.374-3.22 2.374-4.648"/></svg>
